X:717
T: ICH WOLLT WOL AUSGEHN
N: E2163
O: Europa, Mitteleuropa, Oesterreich, Steiermark
R: geistlich, Moral - Lied, Tod
M: 2/4
L: 1/8
K: F
G | G2EC | FAc
c | dBfd | c2z
c | dBfd | cAF
c | BGEG | F2z

